!!!COM: Palestrina, Giovanni Perluigi da
!!!OPR: Missa Panem nostrum
!!!OMD: Credo
!!!OTL: Crucifixus
**kern	**kern	**kern	**kern
*Itenor	*Icalto	*Icant	*Icant
!Tenor	!Altus	!Cantus 2	!Cantus 1
*clefGv2	*clefG2	*clefG2	*clefG2
*k[b-]	*k[b-]	*k[b-]	*k[b-]
*G:dor	*G:dor	*G:dor	*G:dor
*M4/2	*M4/2	*M4/2	*M4/2
=71	=71	=71	=71
0r	1r	0r	0dd
.	[1g	.	.
=72	=72	=72	=72
0r	2g]	0r	1b-
.	2g	.	.
.	1a	.	1cc
=73	=73	=73	=73
0r	1b-	1r	2dd
.	.	.	2g
.	2r	[1dd	2g
.	2g	.	[2b-
=74	=74	=74	=74
0r	2g	1dd]	4b-]
.	.	.	4a
.	2.b-	.	4g
.	.	.	4f
.	.	1b-	4g
.	4a	.	4a
.	2g	.	4b-
.	.	.	4g
=75	=75	=75	=75
0r	2f	1cc	2a
.	2e	.	2g
.	2d	1dd	1b-
.	[2g	.	.
=76	=76	=76	=76
0d	2g]	2r	0a
.	4f	2dd	.
.	4e	.	.
.	4f	2dd	.
.	4g	.	.
.	4a	[2ff	.
.	4f	.	.
=77	=77	=77	=77
1B-	1b-	4ff]	0r
.	.	4ee	.
.	.	2dd	.
1c	2a	2cc	.
.	[2g	2b-	.
=78	=78	=78	=78
1d	4g]	[0a	2r
.	4f	.	.
.	2f	.	2dd
2r	2.d	.	2dd
2d	.	.	[2ff
.	4e	.	.
=79	=79	=79	=79
2d	4f	1a]	4ff]
.	4g	.	4ee
2.f	2.a	.	2dd
.	.	1r	2cc
4e	4g	.	.
2d	2f	.	2b-
=80	=80	=80	=80
2c	2e	1r	4a
.	.	.	4g
2B-	2d	.	1dd
1A	1e	2r	.
.	.	2ee	2cc#
=81	=81	=81	=81
1d	2d	1.ff	1dd
.	2a	.	.
1r	[1b-	.	2r
.	.	2ff	2dd
=82	=82	=82	=82
0r	2b-]	1dd	1.ff
.	2b-	.	.
.	2a	2cc	.
.	[2b-	[2dd	2ff
=83	=83	=83	=83
0r	4b-]	4dd]	1dd
.	4a	4cc	.
.	4g	4b-	.
.	4f	4a	.
.	2e	2g	2cc
.	2d	2a	[2dd
=84	=84	=84	=84
0r	0g	0b-	4dd]
.	.	.	4cc
.	.	.	4b-
.	.	.	4a
.	.	.	4g
.	.	.	4a
.	.	.	[2b-
=85	=85	=85	=85
1r	1f	1cc	2b-]
.	.	.	2a
[1B-	1r	[1dd	1b-
=86	=86	=86	=86
1B-]	0f	1dd]	2r
.	.	.	1b-
1F	.	1cc	.
.	.	.	2a
=87	=87	=87	=87
2.G	2d	2.b-	1.dd
.	1g	.	.
4A	.	4cc	.
2B-	.	2dd	.
2c	2g	2ee-	4cc
.	.	.	4b-
=88	=88	=88	=88
2d	2f	2dd	2a
2e	2e	2cc	2g
2f#	[1d	[1dd	2a
[2g	.	.	2b-
=89	=89	=89	=89
2g]	1d]	1dd]	1a
2f#	.	.	.
2g	2r	2r	1g
2G	2b-	2dd	.
=90	=90	=90	=90
2.d	2.a	2.ff	0r
4d	4a	4ff	.
2d	2a	2ff	.
2c	2a	2ee	.
=91	=91	=91	=91
2B-	2b-	2dd	1r
2A	2cc	2cc	.
[1G	4dd	2b-	2r
.	4cc	.	.
.	4b-	4dd	2g
.	4a	4cc	.
=92	=92	=92	=92
1G]	4g	4b-	2.dd
.	4f	4a	.
.	2g	2b-	.
.	.	.	4dd
1A	1e	2.a	2dd
.	.	.	2cc
.	.	8b-	.
.	.	8cc	.
=93	=93	=93	=93
2B-	1d	[0dd	2b-
2F	.	.	2a
1G	2.b-	.	1g
.	4a	.	.
=94	=94	=94	=94
2r	1g	0dd]	1b-
2g	.	.	.
2f	4d	.	2a
.	4e	.	.
2d	4f	.	2dd
.	4g	.	.
=95	=95	=95	=95
2.f	1a	0r	2cc
.	.	.	2a
8e	.	.	.
8d	.	.	.
2c	1r	.	4cc
.	.	.	4b-
[2d	.	.	4a
.	.	.	4g
=96	=96	=96	=96
4d]	0r	2r	2f
4c	.	.	.
2B-	.	2dd	1g
1A	.	2cc	.
.	.	2a	2f#
=97	=97	=97	=97
2.G	2r	0b-	4g
.	.	.	4a
.	2g	.	4b-
4A	.	.	4cc
2.B-	2f	.	[1dd
.	2d	.	.
4c	.	.	.
=98	=98	=98	=98
1d	1f	1a	1dd]
2r	1g	2dd	[1b-
[2g	.	[2dd	.
=99	=99	=99	=99
2g]	1d	2dd]	2b-]
2f#	.	2dd	2a
1g	2r	1dd	1b-
.	[2g	.	.
=100	=100	=100	=100
1d	2g]	0dd	1a
.	2f#	.	.
1g	2g	.	1b-
.	[2b-	.	.
=101	=101	=101	=101
2.f	2b-]	1ff	2.cc
.	2a	.	.
8e-	.	.	4dd
8d	.	.	.
1c	1cc	1gg	1ee-
=102	=102	=102	=102
1d	1a	1ff#	1dd
2r	2r	2r	2r
2G	2b-	2gg	2dd
=103	=103	=103	=103
2d	2a	2ff	2dd
2G	2b-	2gg	2dd
2B-	2b-	2ff	2dd
2c	2g	2ee-	2cc
=104	=104	=104	=104
4G	1g	2dd	1b-
4A	.	.	.
4B-	.	1dd	.
4c	.	.	.
4d	1f	.	2.a
4e	.	.	.
[2f	.	4cc	.
.	.	4b-	8g
.	.	.	8f
=105	=105	=105	=105
2f]	1c	1cc	1g
2e	.	.	.
[1f	2r	2cc	1a
.	2f	2a	.
=106	=106	=106	=106
1f]	2.a	2.cc	0r
.	4a	4cc	.
1r	2a	2cc	.
.	2b-	2dd	.
=107	=107	=107	=107
2r	2a	2cc	2r
2G	2g	2b-	2dd
2.d	4f	1a	2.ff
.	4g	.	.
.	4a	.	.
4d	4f	.	4ff
=108	=108	=108	=108
2d	2.b-	1r	2ff
2e-	.	.	2gg
.	8a	.	.
.	8g	.	.
2d	2a	2r	2ff
2c	2a	2cc	2ee-
=109	=109	=109	=109
1B-	2.b-	2.ff	1dd
.	4b-	4ff	.
1r	2b-	2dd	1r
.	2cc	2ee-	.
=110	=110	=110	=110
1r	2b-	2dd	1r
.	2a	2cc	.
[1B-	1b-	1dd	[1ff
=111	=111	=111	=111
1B-]	1b-	1dd	1ff]
1f	1a	1cc	1ff
=112	=112	=112	=112
1g	1b	2r	1dd
.	.	1g	.
1c	2.cc	.	1ee-
.	.	[2cc	.
.	4b-	.	.
=113	=113	=113	=113
1c	2a	2cc]	1ee-
.	2g	2b-	.
2d	2f#	2a	2dd
[2G	[2g	[2b-	[2dd
=114	=114	=114	=114
2G]	2g]	2b-]	2dd]
2G	2g	2b-	2dd
1B-	1f	1b-	1dd
=115	=115	=115	=115
1F	2f	0a	1cc
.	1cc	.	.
1f	.	.	1r
.	2a	.	.
=116	=116	=116	=116
2d	2b-	0r	1r
2e	4cc	.	.
.	4b-	.	.
4f	4a	.	2r
4e	4g	.	.
4d	2f	.	2ff
4c	.	.	.
=117	=117	=117	=117
2B-	1g	1r	2dd
2c	.	.	2ee
[1d	1f	2r	4ff
.	.	.	4ee
.	.	2gg	4dd
.	.	.	4cc
=118	=118	=118	=118
2d]	1r	2dd	2b-
2c	.	2ee	2cc
1B-	2r	4ff	1dd
.	.	4ee	.
.	2b-	4dd	.
.	.	4cc	.
=119	=119	=119	=119
2r	2g	2b-	2dd
2F	2a	2cc	2cc
1B-	4b-	1dd	2.b-
.	4a	.	.
.	4g	.	.
.	4f	.	4a
=120	=120	=120	=120
1c	4e	2cc	1g
.	4f	.	.
.	1g	2cc	.
1d	.	1a	1dd
.	2f#	.	.
=121	=121	=121	=121
0G	0g	0b	0dd
*-	*-	*-	*-
!!!CDT: 1525/^1526/-1594/2/2
!!!OCY: Italia
!!!AGN: Mass (Tenor)
!!!AST: renaissance, vocal
!!!ASW: Prayer
!!!PWK: Masses, Book 10
!!!RNB: Cadence finals: C
!!!YOR: Le Opere Complete, v. 27, p. 226
!!!YOO: Rome, Italy: Fratelli Scalera
!!!END: 1992//
!!!EED: John Miller
!!!YEC: Copyright 2000, John Miller
!!!YEN: United States of America
!!!YEM: Rights to all derivative electronic formats reserved.
!!!YEM: Refer to licensing agreement for further details.
!!!YEM: This file must be accompanied by the licensing agreement.
!!!YEM: A copy of the licensing agreement may be found at http://www.music-cog.ohio-state.edu/HumdrumDatabases/Palestrina/license.txt
!!!EMD: converted to Humdrum by Bret Aarden
